X:1
T:Title
%%score 1 2
L:1/8
Q:1/4=93
M:3/4
K:Ab
V:1 treble nm="Grand Piano, Soprano"
V:2 bass nm="Choir Pad, Santa Rosa, W. Nickle, 1889"
V:1
 [CE][CE] [CA] [CA]3 | [CB][DA]- [DA]/[DG]/ [DG]3 | [DE][DE] [DB] [DB]3 | %3
w: By~William~Speer~Nickle,~1889 * * *|||
 [Ec][DB]- [DB]/[CA]/ [CA]3 | [CE][CE] [CA] [Ec]3 | [_Ge][Fe]- [Fe]/[Fd]/ [Fd]3 | %6
w: |||
 [Fd][Ec] [Ed] [Ec]3 | [DB][DB]- [DB]/[CA]/ [CA]3 | [CE][CE]- [CE]/[CA]/ [CA]3 | %9
w: |||
 [CB][DA]- [DA]/[DG]/ [DG]3 | [DE][DE] [DB] [DB]3 | [Ec][DB]- [DB]/[CA]/ [CA]3 | %12
w: |||
 [CE][CE] [CA] [Ec]3 | [_Ge][Fe]- [Fe]/[Fd]/ [Fd]3 | [Fd][Ec] [Ed] [Ec]3 | %15
w: |||
 [DB][DB]- [DB]/[CA]/ [CA]3- | [CA]4 z2 |] %17
w: ||
V:2
 [A,,A,][A,,A,] [A,,E,] [A,,E,]3 | [A,,A,][E,B,]- [E,B,]/[E,B,]/ [E,B,]3 | %2
 [E,G,][E,G,] [E,G,] [E,G,]3 | [E,G,][A,,A,]- [A,,A,]/[A,,A,]/ [A,,A,]3 | %4
 [A,,A,][A,,A,] [A,,E,] [A,,A,]3 | [C,A,][D,A,]- [D,A,]/[D,A,]/ [D,A,]3 | %6
 [D,A,][E,A,] [E,B,] [E,A,]3 | [E,G,][A,,A,]- [A,,A,]/[A,,E,]/ [A,,E,]3 | %8
 [A,,A,][A,,A,]- [A,,A,]/[A,,E,]/ [A,,E,]3 | [A,,A,][E,B,]- [E,B,]/[E,B,]/ [E,B,]3 | %10
 [E,G,][E,G,] [E,G,] [E,G,]3 | [E,G,][A,,A,]- [A,,A,]/[A,,E,]/ [A,,E,]3 | %12
 [A,,A,][A,,A,] [A,,E,] [A,,A,]3 | [C,A,][D,A,]- [D,A,]/[D,A,]/ [D,A,]3 | %14
 [D,A,][E,A,] [E,B,] [E,A,]3 | [E,G,][A,,A,]- [A,,A,]/[A,,E,]/ [A,,E,]3- | [A,,E,]4 z2 |] %17

